Collapse/img/crown_hover.svg

<svg width="18" height="18" viewBox="0 0 18 18" fill="none" xmlns="http://www.w3.org/2000/svg">
<path d="M12.5249 14.235H5.47491C5.15991 14.235 4.80741 13.9875 4.70241 13.6875L1.59741 5.00252C1.15491 3.75752 1.67241 3.37502 2.73741 4.14002L5.66241 6.23252C6.14991 6.57002 6.70491 6.39752 6.91491 5.85002L8.23491 2.33252C8.65491 1.20752 9.35241 1.20752 9.77241 2.33252L11.0924 5.85002C11.3024 6.39752 11.8574 6.57002 12.3374 6.23252L15.0824 4.27502C16.2524 3.43502 16.8149 3.86252 16.3349 5.22002L13.3049 13.7025C13.1924 13.9875 12.8399 14.235 12.5249 14.235Z" stroke="#9562EE" stroke-width="1.5" stroke-linecap="round" stroke-linejoin="round"/>
<path d="M4.875 16.5H13.125" stroke="#9562EE" stroke-width="1.5" stroke-linecap="round" stroke-linejoin="round"/>
<path d="M7.125 10.5H10.875" stroke="#9562EE" stroke-width="1.5" stroke-linecap="round" stroke-linejoin="round"/>
</svg>

<svg width="18" height="18" fill="none" xmlns="http://www.w3.org/2000/svg"><path d="M12.525 14.235h-7.05c-.315 0-.668-.247-.773-.547L1.597 5.002c-.442-1.245.075-1.628 1.14-.863l2.925 2.093c.488.337 1.043.165 1.253-.383l1.32-3.517c.42-1.125 1.117-1.125 1.537 0l1.32 3.517c.21.548.765.72 1.245.383l2.745-1.958c1.17-.84 1.733-.412 1.253.945l-3.03 8.483c-.113.285-.465.532-.78.532zM4.875 16.5h8.25m-6-6h3.75" stroke="#9562EE" stroke-width="1.5" stroke-linecap="round" stroke-linejoin="round"/></svg>
